X:1
T:Title
%%score { ( 1 4 ) | ( 2 3 ) }
L:1/8
M:3/4
K:Bb
V:1 treble nm="Grand Piano"
V:4 treble 
V:2 bass 
V:3 bass 
V:1
 z2 z2[Q:1/4=90] [DF]>[EG] | [DF]2 [DB]2 [Fd]>[Ec] | [DB]4 A>B | c4 [DB]>[Ec] | [Fd]4 [DF]>[EG] | %5
 [DF]2 [DB]2 [Fd]>[Ec] | [DB]4 B>G | F2 d2 d>c | [DB]4 A>B | c2 c2 B>c | [Fd]4 [DF]>[DF] | %11
 [EG]2 [EG]2 [GB]>[EG] |[M:2/4] [DF]4 |[M:1/4] [B,D]>[CE] |[M:3/4] [DF]2 [DB]2 [Fd]>[Fc] | %15
 [FB]4 [GB]>G | F2 d2 d>c |[M:2/4] [DB]4 |[M:1/4] A>B |[M:3/4] c4 z2 | [Fd]4 z2 | [EG]4 z2 | %22
[M:2/4] [B,DF]4 |[M:1/4][K:bass] [F,B,D]>[F,CE] |[M:3/4][K:treble] [B,DF]2 [DB]2 [Fd]>[Fc] | %25
 [FB]4 [GB]>G | F2 d2 d>c |[M:6/4] .[DB]6 z6 |] %28
V:2
 z2 z2 [B,,B,]>[B,,B,] | [B,,B,]2 [B,,F,]2 [B,,B,]>[B,,F,] | [B,,F,]4 [F,C]>[F,B,D] | %3
 [F,A,E]4 [B,,F,]>[B,,F,] | [B,,B,]4 [B,,B,]>[B,,B,] | [B,,B,]2 [B,,F,]2 [B,,B,]>[B,,F,] | %6
 [B,,F,]4 [E,G,E]>[E,B,E] | D2 z2 z2 | [B,,F,B,]4 [F,CE]>[F,B,D] | %9
 [F,A,E]2 [F,A,E]2 [F,B,D]>[F,A,E] | [B,,B,]4 [B,,B,]>[B,,B,] | [E,B,]2 [E,B,]2 [E,B,]>[E,B,] | %12
[M:2/4] [B,,B,]4 |[M:1/4] [B,,F,]>[B,,F,] |[M:3/4] [B,,B,]2 [B,,F,]2 [B,,B,]>[C,A,] | %15
 [D,B,]4 [E,B,]>[E,B,E] | D2 z2 z2 |[M:2/4] [B,,F,B,]4 |[M:1/4] C>D |[M:3/4] E4 z2 | %20
 [B,,B,]>B,, B,,2 D>D | E,>E, E,E, E,E, |[M:2/4] B,,4 |[M:1/4] B,,>B,, | %24
[M:3/4] B,,2 [B,,F,]2 [B,,B,]>[C,A,] | [D,B,]4 [E,B,]>[E,B,E] | D2 z2 z2 |[M:6/4] .[B,,F,B,]6 z6 |] %28
V:3
 x6 | x6 | x6 | x6 | x6 | x6 | x6 | [F,B,]2- [F,B,F]2 [F,B,F]>[F,A,E] | x6 | x6 | x6 | x6 | %12
[M:2/4] x4 |[M:1/4] x2 |[M:3/4] x6 | x6 | [F,B,]2- [F,B,F]2 [F,B,F]>[F,A,E] |[M:2/4] x4 | %18
[M:1/4] x2 |[M:3/4] [F,A,]>F, F,2 D>E | x6 | x6 |[M:2/4] x4 |[M:1/4] x2 |[M:3/4] x6 | x6 | %26
 [F,B,]2- [F,B,F]2 [F,B,F]>[F,A,E] |[M:6/4] x12 |] %28
V:4
 x6 | x6 | x6 | x6 | x6 | x6 | x6 | x6 | x6 | x6 | x6 | x6 |[M:2/4] x4 |[M:1/4] x2 |[M:3/4] x6 | %15
 x6 | x6 |[M:2/4] x4 |[M:1/4] x2 |[M:3/4] z z/ A,/ A,2 B>c | z z/ B,/ B,2 F>F | %21
 B,>B, B,[B,GB] [B,FA][B,EG] |[M:2/4] x4 |[M:1/4][K:bass] x2 |[M:3/4][K:treble] x6 | x6 | x6 | %27
[M:6/4] x12 |] %28

